X:1
M:4/4
K:AM
L:1/8
C:Paul Spencer
G |AAA<G EE2D |CCB,G, A,3B, |CCDEFEDC |B,B,B,<D E4 |
FFEDGFED E>FE>C D3D |CCDEFEDC [1A,>B,CD E3 :[2A,>B,CD E3E |
F/2F/2F2F GG2G |A>GF<E G3G |ccc>c BBBB |A<GF>E D2DD |
CCCC DDD>D |EE<FD E3G |G>GAG EED<C |B,B,C>B, A3 |
